X: 10944
T: Drummond Castle
R: jig
M: 6/8
K: Aminor
|:~A3 ~a3|age g3|cBc edc|Bgg dBG|
AEA ~a3|age g3|ege deg|1 edB A2G:|2 edB A2B||
|:cBc cBc|d(3A/B/c/d ded|ccc edc|Bdg dBG|
cBc edc|deg a3|ege deg|1 edB A2 B:|2 edB A2G||

